Simply-Red-Circles/scalable/devices/drive-optical.svg

<svg xmlns="http://www.w3.org/2000/svg" width="48" height="48" viewBox="0 0 12.7 12.7"><g fill="#a02c2c"><path d="M6.344.073a6.29 6.29 0 0 0-6.29 6.29 6.29 6.29 0 0 0 6.29 6.289 6.29 6.29 0 0 0 6.29-6.29 6.29 6.29 0 0 0-6.29-6.29zm-.018.936a5.407 5.407 0 0 1 5.407 5.407 5.407 5.407 0 0 1-5.407 5.407A5.407 5.407 0 0 1 .92 6.416 5.407 5.407 0 0 1 6.326 1.01z"/><path d="M3.482 2.297a.549.549 0 0 0-.548.55v7.026c0 .305.245.55.548.55h5.754a.548.548 0 0 0 .548-.55V2.848a.549.549 0 0 0-.548-.551zm2.906 1.11a2.895 2.905 0 0 1 2.895 2.905 2.895 2.905 0 0 1-2.895 2.905 2.895 2.905 0 0 1-2.895-2.905 2.895 2.905 0 0 1 2.895-2.904zm-.072 1.794a1.18 1.183 0 0 0-1.179 1.183 1.18 1.183 0 0 0 1.18 1.184 1.18 1.183 0 0 0 1.179-1.184 1.18 1.183 0 0 0-1.18-1.183z"/></g></svg>

<?xml version="1.0" encoding="UTF-8" standalone="no"?>
<svg
   xmlns:dc="http://purl.org/dc/elements/1.1/"
   xmlns:cc="http://creativecommons.org/ns#"
   xmlns:rdf="http://www.w3.org/1999/02/22-rdf-syntax-ns#"
   xmlns:svg="http://www.w3.org/2000/svg"
   xmlns="http://www.w3.org/2000/svg"
   xmlns:sodipodi="http://sodipodi.sourceforge.net/DTD/sodipodi-0.dtd"
   xmlns:inkscape="http://www.inkscape.org/namespaces/inkscape"
   width="48"
   height="48"
   viewBox="0 0 12.7 12.7"
   version="1.1"
   id="svg8"
   sodipodi:docname="drive-optical.svg"
   inkscape:version="0.92.4 (5da689c313, 2019-01-14)">
  <metadata
     id="metadata14">
    <rdf:RDF>
      <cc:Work
         rdf:about="">
        <dc:format>image/svg+xml</dc:format>
        <dc:type
           rdf:resource="http://purl.org/dc/dcmitype/StillImage" />
        <dc:title></dc:title>
      </cc:Work>
    </rdf:RDF>
  </metadata>
  <defs
     id="defs12" />
  <sodipodi:namedview
     pagecolor="#ffffff"
     bordercolor="#666666"
     borderopacity="1"
     objecttolerance="10"
     gridtolerance="10"
     guidetolerance="10"
     inkscape:pageopacity="0"
     inkscape:pageshadow="2"
     inkscape:window-width="1087"
     inkscape:window-height="480"
     id="namedview10"
     showgrid="false"
     inkscape:zoom="4.9166667"
     inkscape:cx="2.1355932"
     inkscape:cy="24"
     inkscape:window-x="0"
     inkscape:window-y="25"
     inkscape:window-maximized="0"
     inkscape:current-layer="svg8" />
  <g
     id="g6"
     style="fill:#a02c2c">
    <path
       d="m 6.344,0.073 a 6.29,6.29 0 0 0 -6.29,6.29 6.29,6.29 0 0 0 6.29,6.289 6.29,6.29 0 0 0 6.29,-6.29 6.29,6.29 0 0 0 -6.29,-6.29 z M 6.326,1.009 A 5.407,5.407 0 0 1 11.733,6.416 5.407,5.407 0 0 1 6.326,11.823 5.407,5.407 0 0 1 0.92,6.416 5.407,5.407 0 0 1 6.326,1.01 Z"
       id="path2"
       inkscape:connector-curvature="0" />
    <path
       d="m 3.482,2.297 a 0.549,0.549 0 0 0 -0.548,0.55 v 7.026 c 0,0.305 0.245,0.55 0.548,0.55 H 9.236 A 0.548,0.548 0 0 0 9.784,9.873 V 2.848 A 0.549,0.549 0 0 0 9.236,2.297 Z m 2.906,1.11 A 2.895,2.905 0 0 1 9.283,6.312 2.895,2.905 0 0 1 6.388,9.217 2.895,2.905 0 0 1 3.493,6.312 2.895,2.905 0 0 1 6.388,3.408 Z M 6.316,5.201 A 1.18,1.183 0 0 0 5.137,6.384 1.18,1.183 0 0 0 6.317,7.568 1.18,1.183 0 0 0 7.496,6.384 1.18,1.183 0 0 0 6.316,5.201 Z"
       id="path4"
       inkscape:connector-curvature="0" />
  </g>
</svg>
